X: 10471
Q: "Moderate."
M: C
L: 1/8
K: G
(Bd)(eg) (dB)(AG) | B2g>a g2Bc | dedB (cB)(AG) | E2G>A G2 :|
|: de |\
g>aba (ge)(dB) | d2g>a g2AB | c>deg (dB)(AG) | B2AB A2GA |\


